src/pos-icons/router-wireless-settings.svg

<svg height="24" viewBox="0 0 24 24" width="24" xmlns="http://www.w3.org/2000/svg"><path d="m20.2 4.9c-1.2-1.1-2.7-1.7-4.2-1.7s-3 .6-4.2 1.7l-.8-.8c1.4-1.4 3.2-2.1 5-2.1s3.6.7 5 2.1zm-.9.8-.8.8c-.7-.7-1.6-1-2.5-1s-1.8.3-2.5 1l-.8-.8c.9-.9 2.1-1.4 3.3-1.4s2.4.5 3.3 1.4m-.3 6.3a2 2 0 0 1 2 2v4a2 2 0 0 1 -2 2h-14a2 2 0 0 1 -2-2v-4a2 2 0 0 1 2-2h10v-4h2v4zm-11 5v-2h-2v2zm3.5 0v-2h-2v2zm3.5 0v-2h-2v2zm-8 5h2v2h-2zm4 0h2v2h-2zm4 0h2v2h-2z"/></svg>

<?xml version="1.0" encoding="UTF-8"?><!DOCTYPE svg PUBLIC "-//W3C//DTD SVG 1.1//EN" "http://www.w3.org/Graphics/SVG/1.1/DTD/svg11.dtd"><svg xmlns="http://www.w3.org/2000/svg" xmlns:xlink="http://www.w3.org/1999/xlink" version="1.1" id="mdi-router-wireless-settings" width="24" height="24" viewBox="0 0 24 24"><path d="M20.2,4.9C19,3.8 17.5,3.2 16,3.2C14.5,3.2 13,3.8 11.8,4.9L11,4.1C12.4,2.7 14.2,2 16,2C17.8,2 19.6,2.7 21,4.1L20.2,4.9M19.3,5.7L18.5,6.5C17.8,5.8 16.9,5.5 16,5.5C15.1,5.5 14.2,5.8 13.5,6.5L12.7,5.7C13.6,4.8 14.8,4.3 16,4.3C17.2,4.3 18.4,4.8 19.3,5.7M19,12A2,2 0 0,1 21,14V18A2,2 0 0,1 19,20H5A2,2 0 0,1 3,18V14A2,2 0 0,1 5,12H15V8H17V12H19M8,17V15H6V17H8M11.5,17V15H9.5V17H11.5M15,17V15H13V17H15M7,22H9V24H7V22M11,22H13V24H11V22M15,22H17V24H15V22Z" /></svg>
